X:1
T:Title
%%score 1 { 2 | 3 }
L:1/8
Q:1/4=93
M:3/4
K:G
V:1 treble nm="Grand Piano, Soprano"
V:2 bass nm="Choir Pad, Burkina Faso, 87.87 D"
V:3 bass 
V:1
 [DG]>[DG] [DG][DG] [DG][DG] | [GB]2 [DG]2 [FA]>[FA] | [FA][FA] [EG]2 [FA]2 | [GB]4 z2 | %4
w: By~Tullius~Clinton~O�Kane,~1870 * * * * *||||
 [GB]>[GB] [DB][DB] [DB][GB] | [Fc]2 [GB]2 [FA]>[FA] | [FA][DA] [GB]2 [G^c]2 | [Fd]4 z2 | %8
w: ||||
 [Fc]>[Fc] [Fc][Fc] [Fc][Fc] | [Fc]2 [FA]2 [GB]>[DB] | [DB][DA] [EG]2 [EA]2 | [^DB]4 z2 | %12
w: ||||
 [EG]>[EG] [EG][EG] [FA][=FB] | [Ec]2 [Ge]2 [Gd]>[Gd] | [Dd][Fc] [GB]2 [FA]2 | G6- | G2 z2 z2 |] %17
w: |||||
V:2
 B,>B, B,B, B,B, | D2 B,2 D>D | DD B,2 D2 | D4 z2 | D>D B,G, B,[K:treble]D | E2 D2 D>D | %6
 DD D2[K:bass] A,2 | A,4 z2 | A,>A, A,A, A,A, | A,2 D2 B,>G, | G,A, B,2 A,2 | F,4 z2 | %12
 G,>B, B,B, D[K:treble]D | C2 C2 B,>B, | B,A, D2 C2 | B,6- | B,2 z2 z2 |] %17
V:3
 G,>G, G,G, G,G, | G,2 G,2 D,>D, | D,D, E,2 D,2 | G,4 z2 | G,>G, .G,2 G,G, | G,2 G,2 D,>D, | %6
 D,F, G,2 E,2 | D,4 z2 | D,>D, D,D, D,D, | D,2 D,2 G,2 | z F, E,2 C,2 | B,,4 z2 | E,>E, E,E, D,G, | %13
 C,2 C,2 D,>D, | D,D, D,2 D,2 | [G,,G,]6- | [G,,G,]2 z2 z2 |] %17

